X:137
T:På Börjes hylla
C:Axel Sjölander
O:Yttre Källehult, Grönadal, Småland
D:[[Grupper/Sågskära]] - Skärvor
H:Axel Sjölander brukade under slutet av sin levnad spela mycket på varuhuset Börjes i Tingsryd. På en upphöjd del av varuhuset, Börjes hylla, finns ett café där kaffet kostar en och femtio 
Z:Transcribed to abcby Jon Magnusson 080211 
R:Vals
M:3/4 
L:1/8 
Q:200 
K:G 
d>B|:G2G3B|d2d2 DG|d2c2Bd|E4EF/2E/2|D2F3A|d2d2^cd|
e2d2 (3BdB|G3Bd>B|G2G3B|d2d2 DG|d2c2Bd|E4EF/2E/2|
D2F2A2|d2E2F2|[1 G2 GG G2|G6:|[2 G2 gg g2| g3 gag|]
e2 e3f|a2A3f|gBd3g|B3 GBc|
d2e2d2|cAF DFA|[1 G2B2c2|d3 gag:|[2 G2 gg g2| g6|]
(:musicend:)

(:title Bessarabjanka:)
Spelad av [[Grupper/Orientexpressen]]. Dans från södra Ukraina, Moldavien, Bessarabien. Spelades förr av en liten ensemble med fiol, flöjt och hackbräde, s.k. "troista muzyka", men spelas idag allmänt, av alla slags ensembler. Öppnas som pdf eller med Finale!
(:title Fato mori dusmanke:)
Populär sång från Bosnien. Spelas ofta av [[Grupper/Orientexpressen]] 

!!!Sångtext: 

Zbog tebe nocima ne spavam (På grund av dig sover jag inte om nätterna)\\
I case vina ispijam (och jag dricker för mycket av vinet)\\
A---- Fato mori dusmanke, lele dusmanke (Oh Fata - min fiende!)

Te tvoje oci zelene (Dina gröna ögon)\\
Srce su moji zanijele (har förtrollat mitt hjärta)\\
A---- Fato mori dusmanke, lele dusmanke
 
Volim te, volim jedina (Jag älskar bara dig)\\
Jer ti si moja sudbina (Du är mitt öde)\\
A---- Fato mori dusmanke, lele dusmanke

(:title Baluta:)
Dans från Rumänien. Spelad av [[Grupper/Orientexpressen]]. Snabbt tempo!

Öppnas med Finale!

(:title Flöjtkopanica:)
Dans från Bulgarien. Öppnas med Finale! 

Spelad av [[Grupper/Orientexpressen]]


Populär dans från Grekland (och Turkiet där både dansen och denna melodi kallas "hasap") 

(:music:)
